build/img/svg/telegram.svg

<svg width="20" height="20" viewBox="0 0 20 20" fill="none" xmlns="http://www.w3.org/2000/svg">
<path d="M18.6784 1.39234L0.753579 8.41309C-0.226742 8.70623 -0.195502 9.70791 0.529556 9.94871L5.02084 11.3988L6.73922 16.849C6.94812 17.4455 7.11892 17.6702 7.47564 17.6753C7.85048 17.6807 7.99404 17.5389 8.38349 17.1828C8.83942 16.7399 9.53387 16.0428 10.631 14.9392L15.3028 18.5098C16.1625 19.0005 16.7832 18.7462 16.9974 17.6839L19.9262 2.69662C20.2402 1.39442 19.5009 1.00615 18.6784 1.39234ZM6.22544 10.8071L15.9366 4.43838C16.4395 4.08941 16.5973 4.47884 16.3703 4.74794L8.14585 12.375L7.5861 15.406L6.22544 10.8071Z" fill="black"/>
</svg>

<svg width="20" height="20" fill="none" xmlns="http://www.w3.org/2000/svg"><path d="M18.678 1.392L.754 8.413c-.98.293-.95 1.295-.224 1.536l4.49 1.45 1.72 5.45c.208.596.379.821.736.826.374.006.518-.136.907-.492.456-.443 1.15-1.14 2.248-2.244l4.672 3.57c.86.491 1.48.237 1.694-.825l2.93-14.987c.313-1.303-.426-1.69-1.249-1.305zM6.225 10.807l9.712-6.369c.502-.349.66.04.433.31l-8.224 7.627-.56 3.031-1.36-4.599z" fill="#000"/></svg>
